X:170
T:Jackson's Rolling Jig
N:anon.
O:Ireland
B:Francis O'Neill: "The Dance Music of Ireland" (1907) no. 170
R:Double jig
Z:Transcribed by Frank Nordberg - http://www.musicaviva.com
N:Music Aviva - The Internet center for free sheet music downloads
M:6/8
L:1/8
K:G
"   ~"NG3 BGB|AFA (c2({d/c/}A))|"   ~"NG3 BGB|cdA ecA|"   ~"NG3 BGB|AFA (
c2({d/c/}A))|GBd d2f|({a}g)dB ({d}c)A|:gdc BGB|AFA (c2({d/c/}A))|gdc BGB|dcA ecA|gdc BGB|AFA (c2({d/c/}A))|GBd
 d2f|({a}g)dB ({d}c)A
